X:1
T:The Roving Journeyman
M:6/8
L:1/8
K:D
 =c2 B| A2 GF-D E|F/2-G/2F-E D2 B,|C-B, C D2 D| D3- D2 D|E-F GA-B|\
 =c| d d2- d2 B| =c2 A B2 c| A3- A2 D|E-F GA-B =c| d2 d d2 B| =c A2 B2 c|\
 A3 =c2 B| A2 GF-D E| F2 E D2 B,| =CB,C D2 D| D3||

